X: 17150
T: Helvic Head
R: jig
M: 6/8
K: Gmajor
|:G3 AGE|A3 AGE|G3 AGE|GAB GED|
G3 AGE|A3 ABc|BAG AGE|GAB GED:|
|:BGG AGG|BGG AGG|BGG AGE|GAB GED|
BGG cAA|dBB e^cA|BAG AGE|1 GAB GED:|2 GAB GAD||
|:gfg dBG|ABA ABd|gfg edB|dgf g2 a|
bag agf|gfe dBG|BAG AGE|1 GAB GAD:|2 GAB GED||
|:G2 c BGd|BGd AFD|G2 c BGd|AFD GED|
G2 c BGd|BGd ABc|BAG AGE|1 GAB GED:|2 GAB GEA||
|:DED DED|AGA AGA|DED DED|GEG GEA|
DED DED|A3 ABc|BAG AGE|1 GAB GEA:|2 GAB GED||

